!!!COM: Gyun, Kim Won
!!!CDT: 1847-1926
!!!OTL: National Anthem, Korea, (North)
!!!ENC: Davis, Matthew J.
!!Vocal Line Only
**kern
*clefG2
*k[b-e-]
*B-:
*M4/4
=1-
4f
=2
4.b-
8b-
4b-
8a
8g
=3
4.f
8e-
4d
4f
=4
4.g
8g
4g
8a
8b-
=5
4.cc
8f
4f
4f
=6
4.dd
8dd
8ee-
8ee-
8dd
8cc
=7
4.cc
8g
4g
4g
=8
4.a
8a
8a
8a
8g
8a
=9
2.b-
4f
==!|:10
4.dd
8dd
4ee-
8dd
8cc
=11
4.cc
8g
4g
4g
=12
4.cc
8cc
4dd
8cc
8b-
=13
4.a
8g
4f
8d
8e-
=14
4.f
8f
4f
8g
8a
=15
4.b-
8cc
4dd
4g
=16
4.ee-
8dd
8dd
8cc
8g
8a
=17
!First Ending
2.b-
4f
==:|!
!Second Ending
2.b-
==|!
*-
